X:1
T: Rosemary Lailey's Reel Variation
C:Bruce Shawyer 
Q:232
R:Reel
K:G
M:4/4
L:1/8
"G"G2GA Bcd2|"G"g2fg dcB2|"Am"c2cd edcB|"D7"ABcB AGFD|"G"G2GA Bcd2|"G"g2fg dcB2|"Am"cBAc "G"BAGB|"D7"AGFA "G"G2D2|
"G"G2GA Bcd2|"G"g2fg dcB2|"Am"c2cd edcB|"D7"ABcB AGFD|"G"G2GA Bcd2|"G"g2fg dcB2|"Am"cBAc "G"BAGB|"D7"AGFA "G"G2d2|
"G"g2ga baga|"G"baga bagf|"Am"e2ef gfed|"Am"cdec "D7"defd|"G"g2ga baga|"G"baga bagf|"Am"efge "D7"fedf|"G"g2g2 g2d2|
"G"g2ga baga|"G"baga bagf|"Am"e2ef gfed|"Am"cdec "D7"defd|"G"g2ga baga|"G"baga bagf|"Am"efge "D7"fedf|"G"g2g2 g4||

